X: 220
T:X-Prep Reel
M:4/4
L:1/8
C:Bernhart
Z:Bernhart
K:A dor
EAAB A~A2G|EAAB dedB|EAAB A~A2G|cABG A~A2G :|| !
eg~g2 age2|de~e2 dcA2|EAcA eAcA|1BG~G2 A2Bd:|2BG~G2
A~A2G||

